packages/core/src/svgs/sxp.svg

<svg width="24" height="24" viewBox="0 0 24 24" fill="none" xmlns="http://www.w3.org/2000/svg">
<g clip-path="url(#clip0_31_19549)">
<path d="M0 0H24V24H0V0Z" fill="url(#paint0_linear_31_19549)"/>
<path d="M11.9615 5.14307C11.8329 5.14307 11.7001 5.15164 11.5672 5.16878C10.9508 5.23702 10.3763 5.51372 9.93862 5.95307L8.97434 6.92164L8.4772 7.41449L7.95434 7.92878L7.47434 8.41307L6.72434 9.15878L6.15434 9.7545C6.04291 9.87021 5.92291 9.97735 5.81577 10.0974C5.3526 10.6538 5.11279 11.3626 5.14291 12.0859C5.12577 12.4031 5.25434 12.8145 5.44291 13.2002C5.54577 13.4145 5.6872 13.6031 5.82005 13.7916C5.91434 13.9202 5.97862 13.9202 6.10291 13.8216L6.1672 13.7574L6.5272 13.3845L7.05434 12.8445L7.59434 12.2702C7.68005 12.1845 7.77434 12.0988 7.86005 12.0045L8.4172 11.4174C8.5972 11.2288 8.78577 11.0488 8.97434 10.8602L9.57862 10.2259L10.1529 9.65592C10.4015 9.40735 10.6415 9.14592 10.8901 8.89307L11.3443 8.43878L11.9615 7.81307C12.1372 7.63307 12.3215 7.46164 12.5015 7.28592L13.6886 6.0945L13.7615 6.00878C13.8558 5.89307 13.8643 5.86307 13.7443 5.77735C13.5558 5.64449 13.3672 5.50307 13.1572 5.40449C12.7801 5.22878 12.3858 5.14735 11.9786 5.14735H11.9615V5.14307ZM15.0129 7.6245C14.6443 7.63735 14.3229 7.75307 14.0829 8.05307L14.0186 8.11307L13.3758 8.73449L12.7158 9.3945L12.1672 9.93878C11.9786 10.1274 11.7943 10.3245 11.6015 10.5131L10.9972 11.1002L10.2729 11.8202L8.94005 13.1531L7.17434 14.9188C7.06291 15.0302 7.05862 15.0474 7.17434 15.1631L8.02291 16.0202C8.19434 16.1916 8.40434 16.3116 8.64434 16.3545C8.87577 16.3974 9.11148 16.3974 9.33863 16.3331C9.50577 16.2816 9.66434 16.2131 9.79291 16.0888L10.4915 15.4159C10.6543 15.2616 10.8215 15.1074 10.9843 14.9445L11.9486 13.9888L12.7501 13.2174L13.8429 12.1502L14.8715 11.1516C15.0215 11.0059 15.1629 11.0231 15.2743 11.1945C15.4672 11.5074 15.5786 11.8459 15.5315 12.2231C15.5035 12.5349 15.3757 12.8295 15.1672 13.0631C14.9101 13.3331 14.6443 13.5859 14.3786 13.8474L13.8129 14.4002L13.0929 15.1202C13.0543 15.1631 13.0201 15.2059 12.9815 15.2402L12.7458 15.4845L12.2101 16.0159C12.0215 16.2045 11.8372 16.4016 11.6529 16.5945L11.5972 16.6374L10.9972 17.2288C10.8986 17.3188 10.8086 17.4131 10.7143 17.5074C10.5558 17.6659 10.3929 17.8245 10.2386 17.9916C10.1443 18.0902 10.1443 18.1502 10.2558 18.2274C10.4443 18.3645 10.6372 18.5016 10.8429 18.6002C11.2286 18.7802 11.6272 18.8574 12.0429 18.8574H12.0472C12.7481 18.8853 13.4318 18.6359 13.9501 18.1631C14.2586 17.8931 14.5372 17.5845 14.8286 17.2931L15.4758 16.6416L16.0843 16.0331C16.2686 15.8445 16.4529 15.6559 16.6415 15.4759C16.8472 15.2659 17.0615 15.0688 17.2715 14.8631C17.4858 14.6488 17.6915 14.4388 17.8972 14.2202C18.247 13.8972 18.5146 13.4954 18.6779 13.0481C18.8411 12.6009 18.8952 12.1212 18.8358 11.6488C18.773 11.2326 18.6209 10.835 18.3901 10.4831C18.2615 10.2816 18.1929 10.1959 17.7986 9.81021C17.2201 9.23164 16.6372 8.65307 16.0672 8.06164C15.935 7.91502 15.7718 7.79971 15.5894 7.72409C15.407 7.64847 15.2101 7.61445 15.0129 7.6245Z" fill="white"/>
</g>
<defs>
<linearGradient id="paint0_linear_31_19549" x1="2.69143" y1="4.07143" x2="20.1943" y2="21.0043" gradientUnits="userSpaceOnUse">
<stop stop-color="#EB5756"/>
<stop offset="1" stop-color="#EE8533"/>
</linearGradient>
<clipPath id="clip0_31_19549">
<rect width="24" height="24" fill="white"/>
</clipPath>
</defs>
</svg>

<svg xmlns="http://www.w3.org/2000/svg" width="24" height="24" fill="none" viewBox="0 0 24 24"><g clip-path="url(#a)"><path fill="url(#b)" d="M0 0h24v24H0z"/><path fill="#fff" d="M11.962 5.143q-.195 0-.395.026a2.72 2.72 0 0 0-1.628.784l-.965.969-.497.492-.523.515-.48.484-.75.746-.57.595c-.111.116-.231.223-.338.343a2.92 2.92 0 0 0-.673 1.989c-.017.317.111.729.3 1.114.103.215.244.403.377.592.094.128.159.128.283.03l.064-.065.36-.373.527-.54.54-.574c.086-.085.18-.171.266-.265l.557-.588c.18-.188.369-.368.557-.557l.605-.634.574-.57c.248-.249.489-.51.737-.763l.454-.454.617-.626c.176-.18.36-.351.54-.527l1.188-1.191.072-.086c.095-.116.103-.146-.017-.232-.188-.133-.377-.274-.587-.373a2.76 2.76 0 0 0-1.178-.257h-.018zm3.05 2.482c-.368.012-.69.128-.93.428l-.063.06-.643.621-.66.66-.549.545c-.188.188-.373.386-.566.574l-.604.587-.724.72-1.333 1.333-1.766 1.766c-.111.111-.115.128 0 .244l.849.857c.171.172.381.292.621.335.232.042.467.042.695-.022.167-.051.325-.12.454-.244l.699-.673c.162-.154.33-.309.492-.472l.965-.955.801-.772 1.093-1.067 1.028-.998c.15-.146.292-.129.403.043.193.312.305.65.258 1.028a1.46 1.46 0 0 1-.365.84c-.257.27-.523.523-.788.784l-.566.553-.72.72c-.039.043-.073.086-.111.12l-.236.245-.536.53c-.189.19-.373.387-.557.58l-.056.042-.6.592c-.098.09-.188.184-.283.278-.158.159-.321.317-.475.485-.095.098-.095.158.017.235.188.137.381.275.587.373.386.18.784.257 1.2.257h.004c.701.028 1.385-.221 1.903-.694.309-.27.587-.579.879-.87l.647-.651.608-.609q.276-.285.558-.557c.205-.21.42-.407.63-.613.214-.214.42-.424.625-.643a3 3 0 0 0 .939-2.571 2.9 2.9 0 0 0-.446-1.166c-.128-.201-.197-.287-.591-.673-.579-.578-1.162-1.157-1.732-1.748a1.33 1.33 0 0 0-1.054-.437"/></g><defs><linearGradient id="b" x1="2.691" x2="20.194" y1="4.071" y2="21.004" gradientUnits="userSpaceOnUse"><stop stop-color="#EB5756"/><stop offset="1" stop-color="#EE8533"/></linearGradient><clipPath id="a"><path fill="#fff" d="M0 0h24v24H0z"/></clipPath></defs></svg>
